images/icon/categories-icon/action-cameras.svg

<svg width="160" height="160" viewBox="0 0 160 160" fill="none" xmlns="http://www.w3.org/2000/svg">
<path d="M97.349 37.49C97.349 36.754 96.771 36 96.038 36H53.053C52.32 36 51.672 36.754 51.672 37.49V41.012H97.348L97.349 37.49Z" fill="#363636"/>
<path d="M98.202 117.809H88.605V107.426H81.647V109.933H62.774C62.237 108.679 61.017 107.785 59.593 107.785H47.559C45.642 107.784 44 109.387 44 111.311V114.329C44 116.253 45.642 117.809 47.559 117.809H59.594C61.105 117.809 62.386 116.913 62.863 115.483H81.648V117.809H72.13C71.597 117.809 71.12 118.246 71.12 118.781V121.953C71.12 122.488 71.598 123.001 72.13 123.001H98.202C98.735 123.001 99.132 122.488 99.132 121.953V118.78C99.132 118.245 98.735 117.809 98.202 117.809Z" fill="#363636"/>
<path d="M104.666 48.39C103.805 45.453 101.099 43.34 97.895 43.34H51.148C47.25 43.34 44 46.449 44 50.361V97.261C44 101.173 47.25 104.382 51.148 104.382H97.895C101.793 104.382 105.021 101.173 105.021 97.261V86.915C111.087 82.711 115.022 75.704 115.022 67.751C115.021 59.672 110.89 52.57 104.666 48.39ZM56.238 98.151C52.979 98.151 50.337 95.501 50.337 92.23C50.337 88.96 52.979 86.308 56.238 86.308C59.497 86.308 62.14 88.96 62.14 92.23C62.14 95.501 59.497 98.151 56.238 98.151ZM62.199 65.546C62.199 66.332 61.564 66.968 60.781 66.968H51.841C51.058 66.968 50.423 66.331 50.423 65.546V51.386C50.423 50.6 51.058 49.963 51.841 49.963H60.78C61.563 49.963 62.198 50.6 62.198 51.386L62.199 65.546ZM91.762 87.858C80.686 87.858 71.705 78.848 71.705 67.735C71.705 56.622 80.685 47.611 91.762 47.611C102.839 47.611 111.82 56.621 111.82 67.735C111.82 78.849 102.839 87.858 91.762 87.858Z" fill="#363636"/>
<path d="M91.762 79.964C98.4932 79.964 103.95 74.4889 103.95 67.735C103.95 60.9811 98.4932 55.506 91.762 55.506C85.0308 55.506 79.574 60.9811 79.574 67.735C79.574 74.4889 85.0308 79.964 91.762 79.964Z" fill="#363636"/>
<path d="M75.562 69.171C76.3545 69.171 76.997 68.5285 76.997 67.736C76.997 66.9435 76.3545 66.301 75.562 66.301C74.7695 66.301 74.127 66.9435 74.127 67.736C74.127 68.5285 74.7695 69.171 75.562 69.171Z" fill="#363636"/>
<path d="M107.963 69.171C108.756 69.171 109.398 68.5285 109.398 67.736C109.398 66.9435 108.756 66.301 107.963 66.301C107.17 66.301 106.528 66.9435 106.528 67.736C106.528 68.5285 107.17 69.171 107.963 69.171Z" fill="#363636"/>
<path d="M83.109 55.429C83.9015 55.429 84.544 54.7865 84.544 53.994C84.544 53.2015 83.9015 52.559 83.109 52.559C82.3165 52.559 81.674 53.2015 81.674 53.994C81.674 54.7865 82.3165 55.429 83.109 55.429Z" fill="#363636"/>
<path d="M100.415 82.912C101.205 82.912 101.845 82.2691 101.845 81.476C101.845 80.6829 101.205 80.04 100.415 80.04C99.6252 80.04 98.985 80.6829 98.985 81.476C98.985 82.2691 99.6252 82.912 100.415 82.912Z" fill="#363636"/>
<path d="M99.697 55C100.49 55 101.132 54.3575 101.132 53.565C101.132 52.7725 100.49 52.13 99.697 52.13C98.9045 52.13 98.262 52.7725 98.262 53.565C98.262 54.3575 98.9045 55 99.697 55Z" fill="#363636"/>
<path d="M83.828 83.341C84.6205 83.341 85.263 82.6985 85.263 81.906C85.263 81.1135 84.6205 80.471 83.828 80.471C83.0355 80.471 82.393 81.1135 82.393 81.906C82.393 82.6985 83.0355 83.341 83.828 83.341Z" fill="#363636"/>
</svg>

<svg xmlns="http://www.w3.org/2000/svg" width="160" height="160" fill="none">
  <path fill="#363636" d="M97.349 37.49c0-.736-.578-1.49-1.311-1.49H53.053c-.733 0-1.381.754-1.381 1.49v3.522h45.676l.001-3.522ZM98.202 117.809h-9.597v-10.383h-6.958v2.507H62.774c-.537-1.254-1.757-2.148-3.181-2.148H47.559c-1.917-.001-3.559 1.602-3.559 3.526v3.018c0 1.924 1.642 3.48 3.559 3.48h12.035c1.511 0 2.792-.896 3.269-2.326h18.785v2.326H72.13c-.533 0-1.01.437-1.01.972v3.172c0 .535.478 1.048 1.01 1.048h26.072c.533 0 .93-.513.93-1.048v-3.173c0-.535-.397-.971-.93-.971ZM104.666 48.39a7.037 7.037 0 0 0-6.771-5.05H51.148C47.25 43.34 44 46.449 44 50.361v46.9c0 3.912 3.25 7.121 7.148 7.121h46.747c3.898 0 7.126-3.209 7.126-7.121V86.915a23.228 23.228 0 0 0 10.001-19.164c-.001-8.079-4.132-15.181-10.356-19.361ZM56.238 98.151c-3.259 0-5.901-2.65-5.901-5.921 0-3.27 2.642-5.922 5.901-5.922s5.902 2.652 5.902 5.922c0 3.271-2.643 5.921-5.902 5.921Zm5.961-32.605a1.42 1.42 0 0 1-1.418 1.422h-8.94a1.42 1.42 0 0 1-1.418-1.422v-14.16a1.42 1.42 0 0 1 1.418-1.423h8.939a1.42 1.42 0 0 1 1.418 1.423l.001 14.16Zm29.563 22.312c-11.076 0-20.057-9.01-20.057-20.123 0-11.113 8.98-20.124 20.057-20.124 11.077 0 20.058 9.01 20.058 20.124 0 11.114-8.981 20.123-20.058 20.123Z"/>
  <path fill="#363636" d="M91.762 79.964c6.731 0 12.188-5.475 12.188-12.229s-5.457-12.229-12.188-12.229c-6.731 0-12.188 5.475-12.188 12.229s5.457 12.229 12.188 12.229ZM75.562 69.171a1.435 1.435 0 1 0 0-2.87 1.435 1.435 0 0 0 0 2.87ZM107.963 69.171a1.435 1.435 0 1 0 0-2.87 1.435 1.435 0 0 0 0 2.87ZM83.109 55.429a1.435 1.435 0 1 0 0-2.87 1.435 1.435 0 0 0 0 2.87ZM100.415 82.912c.79 0 1.43-.643 1.43-1.436 0-.793-.64-1.436-1.43-1.436-.79 0-1.43.643-1.43 1.436 0 .793.64 1.436 1.43 1.436ZM99.697 55a1.435 1.435 0 1 0 0-2.87 1.435 1.435 0 0 0 0 2.87ZM83.828 83.341a1.435 1.435 0 1 0 0-2.87 1.435 1.435 0 0 0 0 2.87Z"/>
</svg>
